X: 2
T: Joe Cashmere's 
M: 3/4
L: 1/8
R: varsovienne
K: Gmaj
|: DG |\
B2 B2 dG | B2 B2 dG | A2 A2 cA | GE DB, DG |
B2 B2 dG | B2 B2 dB | A2 A2 AF | G4 :|
|: Bd |\
e2 ef ge | d2 d2 GB | d2 dc Ad | B2 B2 Gd |
e2 ef ge | d2 d2 GB | de dc AF | G4 :|
